!!!COM: Music21
!!!OTL: strathspey_Kerrymans-Fling
!!!OMV: strathspey_Kerrymans-Fling
**kern
*clefG2
*k[f#c#]
*D:
*M4/4
=1
4a
8aL
8f#J
8aL
8bJ
8ddL
8eeJ
=
8ff#L
8ddJ
8eeL
8ff#J
8eeL
8ddJ
8bL
8ddJ
=
4a
8aL
8f#J
8aL
8bJ
8ddL
8eeJ
=
8ff#L
8ddJ
12eeL
12ff#
12eeJ
4dd
8ddL
8bJ
=||
*M4/4
4a
8aL
8f#J
8aL
8bJ
8ddL
8eeJ
!!linebreak:original
=
8ff#L
8ddJ
8eeL
8ff#J
8eeL
8ddJ
8bL
8ddJ
=
4a
8aL
8f#J
8aL
8bJ
8ddL
8eeJ
=
8ff#L
8ddJ
12eeL
12ff#
12eeJ
4dd
8ddL
8eeJ
=||
16ff#KL
8.aaJ
8aaL
8ff#J
8bbL
8ff#J
8bbL
8ff#J
=
8aaL
8ff#J
8eeL
8ff#J
8eeL
8ddJ
8bL
8ddJ
!!linebreak:original
=
16ff#KL
8.aaJ
8aaL
8ff#J
8bbL
8ff#J
8bbL
8ff#J
=
8aaL
8ff#J
12eeL
12ff#
12eeJ
4dd
8ddL
8eeJ
=||
*M4/4
4a
8aL
8f#J
8aL
8bJ
8ddL
8eeJ
=
8ff#L
8ddJ
8eeL
8ff#J
8eeL
8ddJ
8bL
8ddJ
=
4a
8aL
8f#J
8aL
8bJ
8ddL
8eeJ
!!linebreak:original
=
8ff#L
8ddJ
12eeL
12ff#
12eeJ
4dd
8ddL
8bJ
=||
*M4/4
4a
8aL
8f#J
8aL
8bJ
8ddL
8eeJ
=
8ff#L
8ddJ
8eeL
8ff#J
8eeL
8ddJ
8bL
8ddJ
=
4a
8aL
8f#J
8aL
8bJ
8ddL
8eeJ
=
8ff#L
8ddJ
12eeL
12ff#
12eeJ
4dd
8ddL
8eeJ
!!linebreak:original
=||
16ff#KL
8.aaJ
8aaL
8ff#J
8bbL
8ff#J
8bbL
8ff#J
=
8aaL
8ff#J
8eeL
8ff#J
8eeL
8ddJ
8bL
8ddJ
=
4a
8aL
8f#J
8aL
8bJ
8ddL
8eeJ
=
8ff#L
8ddJ
12eeL
12ff#
12eeJ
4dd
8ddL
8bJ
=||
*-
